app/component-library/components/Icons/Icon/assets/danger.svg

<svg width="24" height="24" viewBox="0 0 24 24" fill="none" xmlns="http://www.w3.org/2000/svg">
<path d="M21.6295 16.1824L15.4992 4.44524C14.6754 2.86602 13.5356 2 12.2808 2C11.026 2 9.88611 2.86602 9.06235 4.44524L2.93203 16.1824C2.15616 17.6801 2.06995 19.1167 2.69256 20.2476C3.31517 21.3785 4.54124 22 6.15045 22H18.4111C20.0203 22 21.2463 21.3785 21.869 20.2476C22.4916 19.1167 22.4054 17.6699 21.6295 16.1824ZM11.5624 9.13194C11.5624 8.71421 11.888 8.3678 12.2808 8.3678C12.6735 8.3678 12.9992 8.71421 12.9992 9.13194V14.2262C12.9992 14.6439 12.6735 14.9903 12.2808 14.9903C11.888 14.9903 11.5624 14.6439 11.5624 14.2262V9.13194ZM12.9608 18.0061C12.9129 18.0469 12.8651 18.0876 12.8172 18.1284C12.7597 18.1691 12.7022 18.1997 12.6447 18.2201C12.5873 18.2506 12.5298 18.271 12.4628 18.2812C12.4053 18.2914 12.3382 18.3016 12.2808 18.3016C12.2233 18.3016 12.1562 18.2914 12.0892 18.2812C12.0317 18.271 11.9742 18.2506 11.9168 18.2201C11.8593 18.1997 11.8018 18.1691 11.7444 18.1284C11.6965 18.0876 11.6486 18.0469 11.6007 18.0061C11.4283 17.8125 11.3229 17.5476 11.3229 17.2827C11.3229 17.0178 11.4283 16.7529 11.6007 16.5593C11.6486 16.5186 11.6965 16.4778 11.7444 16.4371C11.8018 16.3963 11.8593 16.3658 11.9168 16.3454C11.9742 16.3148 12.0317 16.2944 12.0892 16.2843C12.2137 16.2537 12.3478 16.2537 12.4628 16.2843C12.5298 16.2944 12.5873 16.3148 12.6447 16.3454C12.7022 16.3658 12.7597 16.3963 12.8172 16.4371C12.8651 16.4778 12.9129 16.5186 12.9608 16.5593C13.1333 16.7529 13.2386 17.0178 13.2386 17.2827C13.2386 17.5476 13.1333 17.8125 12.9608 18.0061Z" fill="currentColor"/>
</svg>

<svg xmlns="http://www.w3.org/2000/svg" width="24" height="24" viewBox="0 0 24 24" fill="none"><path d="M21.63 16.182 15.5 4.445C14.674 2.866 13.535 2 12.28 2c-1.254 0-2.394.866-3.218 2.445l-6.13 11.737c-.776 1.498-.862 2.935-.24 4.066C3.316 21.378 4.543 22 6.15 22h12.261c1.61 0 2.835-.622 3.458-1.752.623-1.131.536-2.578-.24-4.066zm-10.068-7.05c0-.418.326-.764.719-.764.393 0 .718.346.718.764v5.094c0 .418-.325.764-.718.764-.393 0-.719-.346-.719-.764V9.132zm1.399 8.874-.144.122a.712.712 0 0 1-.172.092.555.555 0 0 1-.182.061c-.058.01-.125.02-.182.02-.058 0-.125-.01-.192-.02a.585.585 0 0 1-.172-.06.71.71 0 0 1-.173-.093l-.143-.122a1.108 1.108 0 0 1-.278-.723c0-.265.105-.53.278-.724l.143-.122a.706.706 0 0 1 .173-.092.58.58 0 0 1 .172-.06.771.771 0 0 1 .374 0 .55.55 0 0 1 .182.06c.057.02.115.051.172.092l.144.122c.172.194.278.459.278.724 0 .265-.106.53-.278.723z" fill="currentColor"/></svg>
